( pcb2gcode 2.0.0 )
( Software-independent Gcode )

( This file uses only one drill bit. Forced by 'onedrill' option )

G94       (Millimeters per minute feed rate.)
G21       (Units == Millimeters.)
G91.1     (Incremental arc distance mode.)
G90       (Absolute coordinates.)
G00 S24000     (RPM spindle speed.)

G00 Z100.00000 (Retract)
T5
M5      (Spindle stop.)
G04 P5.00000
(MSG, Change tool bit to drill size 0.6 mm)
M6      (Tool change.)
M0      (Temporary machine stop.)
M3      (Spindle on clockwise.)
G0 Z0.50000
G04 P5.00000

G81 R0.50000 Z-3.00000 F100.00000 X5.00000 Y15.00000
X1.19000 Y17.54000
X7.54000 Y20.08000
X21.51000 Y17.54000
X25.32000 Y15.00000
X38.00000 Y7.00000
X27.86000 Y20.08000
X24.05000 Y26.43000
X21.51000 Y26.43000
X18.97000 Y26.43000
X21.51000 Y34.05000
X18.97000 Y34.05000
X16.43000 Y34.05000
X13.89000 Y34.05000
X11.35000 Y34.05000
X11.35000 Y36.59000
X13.89000 Y36.59000
X16.43000 Y36.59000
X18.97000 Y36.59000
X21.51000 Y36.59000
X24.05000 Y34.05000
X26.59000 Y34.05000
X29.13000 Y36.59000
X29.13000 Y34.05000
X26.59000 Y36.59000
X24.05000 Y36.59000
X27.86000 Y41.67000
X26.59000 Y42.94000
X25.32000 Y41.67000
X24.05000 Y42.94000
X22.78000 Y41.67000
X21.51000 Y42.94000
X20.24000 Y41.67000
X18.97000 Y42.94000
X26.20900 Y55.76700
X38.00000 Y72.00000
X22.79300 Y62.06600
X22.79300 Y63.92000
X19.60500 Y67.70500
X17.70000 Y67.70500
X19.60500 Y64.53000
X17.70000 Y64.53000
X17.70000 Y62.37100
X12.74700 Y62.37100
X10.08000 Y56.40200
X7.54000 Y62.37100
X-2.26500 Y54.37000
X8.81000 Y46.75000
X8.81000 Y44.84500
X12.62000 Y44.21000
X8.81000 Y41.67000
X7.54000 Y42.94000
X6.27000 Y41.67000
X-1.35000 Y39.05000
X-3.89000 Y35.32000
X-1.35000 Y34.05000
X3.65000 Y36.55000
X2.46000 Y30.24000
X1.19000 Y30.24000
X-0.08000 Y30.24000
X-12.78000 Y20.08000
X-15.32000 Y15.00000
X-19.13000 Y17.54000
X-24.21000 Y15.00000
X-37.00000 Y7.00000
X-29.92500 Y15.00000
X-29.92500 Y17.54000
X-26.75000 Y17.54000
X-24.21000 Y20.08000
X-26.75000 Y22.62000
X-29.92500 Y20.08000
X-29.92500 Y22.62000
X-28.02000 Y30.87500
X-30.56000 Y30.87500
X-30.56000 Y33.41500
X-28.02000 Y33.41500
X-21.03500 Y31.51000
X-19.76500 Y31.51000
X-18.49500 Y31.51000
X-26.11500 Y40.40000
X-30.56000 Y53.73500
X-30.56000 Y56.91000
X-30.56000 Y58.18000
X-30.56000 Y59.45000
X-19.76500 Y54.37000
X-37.00000 Y72.00000
G80

G00 Z100.000 ( All done -- retract )

M5      (Spindle off.)
G04 P5.000000
M9      (Coolant off.)
M2      (Program end.)

