( pcb2gcode 2.0.0 )
( Software-independent Gcode )
( This file uses a mill head of 0.80000mm to drill the 9 hole sizes. )
( Hole sizes: [0.6 mm] [0.75 mm] [0.9 mm] [1 mm] [1.016 mm] [1.1 mm] [1.5 mm] [2.2 mm] [4 mm] )

G94       (Millimeters per minute feed rate.)
G21       (Units == Millimeters.)
G91.1     (Incremental arc distance mode.)
G90       (Absolute coordinates.)
S24000    (RPM spindle speed.)

G01 F120.00000 (Feedrate)
G00 Z100.00000 (Retract)
T1
M5        (Spindle stop.)
G04 P5.00000
(MSG, Change tool bit to drill size 0.80000mm)
M6        (Tool change.)
M0        (Temporary machine stop.)
M3        (Spindle on clockwise.)
G04 P5.00000
G00 Z0.50000

G0 X-24.21000 Y15.00000
G1 Z-3.00000 F100.00000
G1 Z0.50000 F100.00000

G0 X-26.75000 Y17.54000
G1 Z-3.00000 F100.00000
G1 Z0.50000 F100.00000

G0 X-24.21000 Y20.08000
G1 Z-3.00000 F100.00000
G1 Z0.50000 F100.00000

G0 X-26.75000 Y22.62000
G1 Z-3.00000 F100.00000
G1 Z0.50000 F100.00000

G0 X-26.11500 Y40.40000
G1 Z-3.00000 F100.00000
G1 Z0.50000 F100.00000

G0 X-30.56000 Y53.73500
G1 Z-3.00000 F100.00000
G1 Z0.50000 F100.00000

G0 X-3.89000 Y35.32000
G1 Z-3.00000 F100.00000
G1 Z0.50000 F100.00000

G0 X10.08000 Y56.40200
G1 Z-3.00000 F100.00000
G1 Z0.50000 F100.00000

G0 X7.54000 Y62.37100
G1 Z-3.00000 F100.00000
G1 Z0.50000 F100.00000

G0 X12.74700 Y62.37100
G1 Z-3.00000 F100.00000
G1 Z0.50000 F100.00000

G0 X17.70000 Y62.37100
G1 Z-3.00000 F100.00000
G1 Z0.50000 F100.00000

G0 X17.70000 Y64.53000
G1 Z-3.00000 F100.00000
G1 Z0.50000 F100.00000

G0 X17.70000 Y67.70500
G1 Z-3.00000 F100.00000
G1 Z0.50000 F100.00000

G0 X19.60500 Y67.70500
G1 Z-3.00000 F100.00000
G1 Z0.50000 F100.00000

G0 X19.60500 Y64.53000
G1 Z-3.00000 F100.00000
G1 Z0.50000 F100.00000

G0 X22.79300 Y63.92000
G1 Z-3.00000 F100.00000
G1 Z0.50000 F100.00000

G0 X22.79300 Y62.06600
G1 Z-3.00000 F100.00000
G1 Z0.50000 F100.00000

G0 X26.20900 Y55.76700
G1 Z-3.00000 F100.00000
G1 Z0.50000 F100.00000

G0 X27.86000 Y41.67000
G1 Z-3.00000 F100.00000
G1 Z0.50000 F100.00000

G0 X26.59000 Y42.94000
G1 Z-3.00000 F100.00000
G1 Z0.50000 F100.00000

G0 X25.32000 Y41.67000
G1 Z-3.00000 F100.00000
G1 Z0.50000 F100.00000

G0 X24.05000 Y42.94000
G1 Z-3.00000 F100.00000
G1 Z0.50000 F100.00000

G0 X22.78000 Y41.67000
G1 Z-3.00000 F100.00000
G1 Z0.50000 F100.00000

G0 X21.51000 Y42.94000
G1 Z-3.00000 F100.00000
G1 Z0.50000 F100.00000

G0 X20.24000 Y41.67000
G1 Z-3.00000 F100.00000
G1 Z0.50000 F100.00000

G0 X18.97000 Y42.94000
G1 Z-3.00000 F100.00000
G1 Z0.50000 F100.00000

G0 X12.62000 Y44.21000
G1 Z-3.00000 F100.00000
G1 Z0.50000 F100.00000

G0 X8.81000 Y46.75000
G1 Z-3.00000 F100.00000
G1 Z0.50000 F100.00000

G0 X8.81000 Y44.84500
G1 Z-3.00000 F100.00000
G1 Z0.50000 F100.00000

G0 X6.27000 Y41.67000
G1 Z-3.00000 F100.00000
G1 Z0.50000 F100.00000

G0 X7.54000 Y42.94000
G1 Z-3.00000 F100.00000
G1 Z0.50000 F100.00000

G0 X8.81000 Y41.67000
G1 Z-3.00000 F100.00000
G1 Z0.50000 F100.00000

G0 X24.05000 Y26.43000
G1 Z-3.00000 F100.00000
G1 Z0.50000 F100.00000

G0 X21.51000 Y26.43000
G1 Z-3.00000 F100.00000
G1 Z0.50000 F100.00000

G0 X18.97000 Y26.43000
G1 Z-3.00000 F100.00000
G1 Z0.50000 F100.00000

G0 X2.46000 Y30.24000
G1 Z-3.00000 F100.00000
G1 Z0.50000 F100.00000

G0 X1.19000 Y30.24000
G1 Z-3.00000 F100.00000
G1 Z0.50000 F100.00000

G0 X-0.08000 Y30.24000
G1 Z-3.00000 F100.00000
G1 Z0.50000 F100.00000

G0 X-18.49500 Y31.51000
G1 Z-3.00000 F100.00000
G1 Z0.50000 F100.00000

G0 X-19.76500 Y31.51000
G1 Z-3.00000 F100.00000
G1 Z0.50000 F100.00000

G0 X-21.03500 Y31.51000
G1 Z-3.00000 F100.00000
G1 Z0.50000 F100.00000

G0 X-30.56000 Y56.91000
G1 Z-3.00000 F100.00000
G1 Z0.50000 F100.00000

G0 X-30.56000 Y58.18000
G1 Z-3.00000 F100.00000
G1 Z0.50000 F100.00000

G0 X-30.56000 Y59.45000
G1 Z-3.00000 F100.00000
G1 Z0.50000 F100.00000

G0 X-1.30000 Y34.05000
G1 Z3.00000 F100.00000
G1 F120.00000
G2 X-1.30000 Y34.05000 Z-0.00000 I-0.05000 J0.00000
G2 X-1.30000 Y34.05000 Z-3.00000 I-0.05000 J0.00000
G2 X-1.30000 Y34.05000 I-0.05000 J0.00000
G1 Z0.50000 F100.00000

G0 X-1.30000 Y39.05000
G1 Z3.00000 F100.00000
G1 F120.00000
G2 X-1.30000 Y39.05000 Z-0.00000 I-0.05000 J0.00000
G2 X-1.30000 Y39.05000 Z-3.00000 I-0.05000 J0.00000
G2 X-1.30000 Y39.05000 I-0.05000 J0.00000
G1 Z0.50000 F100.00000

G0 X3.70000 Y36.55000
G1 Z3.00000 F100.00000
G1 F120.00000
G2 X3.70000 Y36.55000 Z-0.00000 I-0.05000 J0.00000
G2 X3.70000 Y36.55000 Z-3.00000 I-0.05000 J0.00000
G2 X3.70000 Y36.55000 I-0.05000 J0.00000
G1 Z0.50000 F100.00000

G0 X-29.82500 Y15.00000
G1 Z3.00000 F100.00000
G1 F120.00000
G2 X-29.82500 Y15.00000 Z-0.00000 I-0.10000 J0.00000
G2 X-29.82500 Y15.00000 Z-3.00000 I-0.10000 J0.00000
G2 X-29.82500 Y15.00000 I-0.10000 J0.00000
G1 Z0.50000 F100.00000

G0 X-29.82500 Y17.54000
G1 Z3.00000 F100.00000
G1 F120.00000
G2 X-29.82500 Y17.54000 Z-0.00000 I-0.10000 J0.00000
G2 X-29.82500 Y17.54000 Z-3.00000 I-0.10000 J0.00000
G2 X-29.82500 Y17.54000 I-0.10000 J0.00000
G1 Z0.50000 F100.00000

G0 X-29.82500 Y20.08000
G1 Z3.00000 F100.00000
G1 F120.00000
G2 X-29.82500 Y20.08000 Z-0.00000 I-0.10000 J0.00000
G2 X-29.82500 Y20.08000 Z-3.00000 I-0.10000 J0.00000
G2 X-29.82500 Y20.08000 I-0.10000 J0.00000
G1 Z0.50000 F100.00000

G0 X-29.82500 Y22.62000
G1 Z3.00000 F100.00000
G1 F120.00000
G2 X-29.82500 Y22.62000 Z-0.00000 I-0.10000 J0.00000
G2 X-29.82500 Y22.62000 Z-3.00000 I-0.10000 J0.00000
G2 X-29.82500 Y22.62000 I-0.10000 J0.00000
G1 Z0.50000 F100.00000

G0 X-19.66500 Y54.37000
G1 Z3.00000 F100.00000
G1 F120.00000
G2 X-19.66500 Y54.37000 Z-0.00000 I-0.10000 J0.00000
G2 X-19.66500 Y54.37000 Z-3.00000 I-0.10000 J0.00000
G2 X-19.66500 Y54.37000 I-0.10000 J0.00000
G1 Z0.50000 F100.00000

G0 X-2.16500 Y54.37000
G1 Z3.00000 F100.00000
G1 F120.00000
G2 X-2.16500 Y54.37000 Z-0.00000 I-0.10000 J0.00000
G2 X-2.16500 Y54.37000 Z-3.00000 I-0.10000 J0.00000
G2 X-2.16500 Y54.37000 I-0.10000 J0.00000
G1 Z0.50000 F100.00000

G0 X11.45800 Y34.05000
G1 Z3.00000 F100.00000
G1 F120.00000
G2 X11.45800 Y34.05000 Z-0.00000 I-0.10800 J0.00000
G2 X11.45800 Y34.05000 Z-3.00000 I-0.10800 J0.00000
G2 X11.45800 Y34.05000 I-0.10800 J0.00000
G1 Z0.50000 F100.00000

G0 X11.45800 Y36.59000
G1 Z3.00000 F100.00000
G1 F120.00000
G2 X11.45800 Y36.59000 Z-0.00000 I-0.10800 J0.00000
G2 X11.45800 Y36.59000 Z-3.00000 I-0.10800 J0.00000
G2 X11.45800 Y36.59000 I-0.10800 J0.00000
G1 Z0.50000 F100.00000

G0 X13.99800 Y34.05000
G1 Z3.00000 F100.00000
G1 F120.00000
G2 X13.99800 Y34.05000 Z-0.00000 I-0.10800 J0.00000
G2 X13.99800 Y34.05000 Z-3.00000 I-0.10800 J0.00000
G2 X13.99800 Y34.05000 I-0.10800 J0.00000
G1 Z0.50000 F100.00000

G0 X13.99800 Y36.59000
G1 Z3.00000 F100.00000
G1 F120.00000
G2 X13.99800 Y36.59000 Z-0.00000 I-0.10800 J0.00000
G2 X13.99800 Y36.59000 Z-3.00000 I-0.10800 J0.00000
G2 X13.99800 Y36.59000 I-0.10800 J0.00000
G1 Z0.50000 F100.00000

G0 X16.53800 Y36.59000
G1 Z3.00000 F100.00000
G1 F120.00000
G2 X16.53800 Y36.59000 Z-0.00000 I-0.10800 J0.00000
G2 X16.53800 Y36.59000 Z-3.00000 I-0.10800 J0.00000
G2 X16.53800 Y36.59000 I-0.10800 J0.00000
G1 Z0.50000 F100.00000

G0 X19.07800 Y36.59000
G1 Z3.00000 F100.00000
G1 F120.00000
G2 X19.07800 Y36.59000 Z-0.00000 I-0.10800 J0.00000
G2 X19.07800 Y36.59000 Z-3.00000 I-0.10800 J0.00000
G2 X19.07800 Y36.59000 I-0.10800 J0.00000
G1 Z0.50000 F100.00000

G0 X16.53800 Y34.05000
G1 Z3.00000 F100.00000
G1 F120.00000
G2 X16.53800 Y34.05000 Z-0.00000 I-0.10800 J0.00000
G2 X16.53800 Y34.05000 Z-3.00000 I-0.10800 J0.00000
G2 X16.53800 Y34.05000 I-0.10800 J0.00000
G1 Z0.50000 F100.00000

G0 X19.07800 Y34.05000
G1 Z3.00000 F100.00000
G1 F120.00000
G2 X19.07800 Y34.05000 Z-0.00000 I-0.10800 J0.00000
G2 X19.07800 Y34.05000 Z-3.00000 I-0.10800 J0.00000
G2 X19.07800 Y34.05000 I-0.10800 J0.00000
G1 Z0.50000 F100.00000

G0 X21.61800 Y36.59000
G1 Z3.00000 F100.00000
G1 F120.00000
G2 X21.61800 Y36.59000 Z-0.00000 I-0.10800 J0.00000
G2 X21.61800 Y36.59000 Z-3.00000 I-0.10800 J0.00000
G2 X21.61800 Y36.59000 I-0.10800 J0.00000
G1 Z0.50000 F100.00000

G0 X21.61800 Y34.05000
G1 Z3.00000 F100.00000
G1 F120.00000
G2 X21.61800 Y34.05000 Z-0.00000 I-0.10800 J0.00000
G2 X21.61800 Y34.05000 Z-3.00000 I-0.10800 J0.00000
G2 X21.61800 Y34.05000 I-0.10800 J0.00000
G1 Z0.50000 F100.00000

G0 X24.15800 Y34.05000
G1 Z3.00000 F100.00000
G1 F120.00000
G2 X24.15800 Y34.05000 Z-0.00000 I-0.10800 J0.00000
G2 X24.15800 Y34.05000 Z-3.00000 I-0.10800 J0.00000
G2 X24.15800 Y34.05000 I-0.10800 J0.00000
G1 Z0.50000 F100.00000

G0 X24.15800 Y36.59000
G1 Z3.00000 F100.00000
G1 F120.00000
G2 X24.15800 Y36.59000 Z-0.00000 I-0.10800 J0.00000
G2 X24.15800 Y36.59000 Z-3.00000 I-0.10800 J0.00000
G2 X24.15800 Y36.59000 I-0.10800 J0.00000
G1 Z0.50000 F100.00000

G0 X26.69800 Y36.59000
G1 Z3.00000 F100.00000
G1 F120.00000
G2 X26.69800 Y36.59000 Z-0.00000 I-0.10800 J0.00000
G2 X26.69800 Y36.59000 Z-3.00000 I-0.10800 J0.00000
G2 X26.69800 Y36.59000 I-0.10800 J0.00000
G1 Z0.50000 F100.00000

G0 X26.69800 Y34.05000
G1 Z3.00000 F100.00000
G1 F120.00000
G2 X26.69800 Y34.05000 Z-0.00000 I-0.10800 J0.00000
G2 X26.69800 Y34.05000 Z-3.00000 I-0.10800 J0.00000
G2 X26.69800 Y34.05000 I-0.10800 J0.00000
G1 Z0.50000 F100.00000

G0 X29.23800 Y36.59000
G1 Z3.00000 F100.00000
G1 F120.00000
G2 X29.23800 Y36.59000 Z-0.00000 I-0.10800 J0.00000
G2 X29.23800 Y36.59000 Z-3.00000 I-0.10800 J0.00000
G2 X29.23800 Y36.59000 I-0.10800 J0.00000
G1 Z0.50000 F100.00000

G0 X29.23800 Y34.05000
G1 Z3.00000 F100.00000
G1 F120.00000
G2 X29.23800 Y34.05000 Z-0.00000 I-0.10800 J0.00000
G2 X29.23800 Y34.05000 Z-3.00000 I-0.10800 J0.00000
G2 X29.23800 Y34.05000 I-0.10800 J0.00000
G1 Z0.50000 F100.00000

G0 X-27.87000 Y30.87500
G1 Z3.00000 F100.00000
G1 F120.00000
G2 X-27.87000 Y30.87500 Z-0.00000 I-0.15000 J0.00000
G2 X-27.87000 Y30.87500 Z-3.00000 I-0.15000 J0.00000
G2 X-27.87000 Y30.87500 I-0.15000 J0.00000
G1 Z0.50000 F100.00000

G0 X-27.87000 Y33.41500
G1 Z3.00000 F100.00000
G1 F120.00000
G2 X-27.87000 Y33.41500 Z-0.00000 I-0.15000 J0.00000
G2 X-27.87000 Y33.41500 Z-3.00000 I-0.15000 J0.00000
G2 X-27.87000 Y33.41500 I-0.15000 J0.00000
G1 Z0.50000 F100.00000

G0 X-30.41000 Y33.41500
G1 Z3.00000 F100.00000
G1 F120.00000
G2 X-30.41000 Y33.41500 Z-0.00000 I-0.15000 J0.00000
G2 X-30.41000 Y33.41500 Z-3.00000 I-0.15000 J0.00000
G2 X-30.41000 Y33.41500 I-0.15000 J0.00000
G1 Z0.50000 F100.00000

G0 X-30.41000 Y30.87500
G1 Z3.00000 F100.00000
G1 F120.00000
G2 X-30.41000 Y30.87500 Z-0.00000 I-0.15000 J0.00000
G2 X-30.41000 Y30.87500 Z-3.00000 I-0.15000 J0.00000
G2 X-30.41000 Y30.87500 I-0.15000 J0.00000
G1 Z0.50000 F100.00000

G0 X-18.78000 Y17.54000
G1 Z3.00000 F100.00000
G1 F120.00000
G2 X-18.78000 Y17.54000 Z-0.00000 I-0.35000 J0.00000
G2 X-18.78000 Y17.54000 Z-3.00000 I-0.35000 J0.00000
G2 X-18.78000 Y17.54000 I-0.35000 J0.00000
G1 Z0.50000 F100.00000

G0 X-12.43000 Y20.08000
G1 Z3.00000 F100.00000
G1 F120.00000
G2 X-12.43000 Y20.08000 Z-0.00000 I-0.35000 J0.00000
G2 X-12.43000 Y20.08000 Z-3.00000 I-0.35000 J0.00000
G2 X-12.43000 Y20.08000 I-0.35000 J0.00000
G1 Z0.50000 F100.00000

G0 X1.54000 Y17.54000
G1 Z3.00000 F100.00000
G1 F120.00000
G2 X1.54000 Y17.54000 Z-0.00000 I-0.35000 J0.00000
G2 X1.54000 Y17.54000 Z-3.00000 I-0.35000 J0.00000
G2 X1.54000 Y17.54000 I-0.35000 J0.00000
G1 Z0.50000 F100.00000

G0 X7.89000 Y20.08000
G1 Z3.00000 F100.00000
G1 F120.00000
G2 X7.89000 Y20.08000 Z-0.00000 I-0.35000 J0.00000
G2 X7.89000 Y20.08000 Z-3.00000 I-0.35000 J0.00000
G2 X7.89000 Y20.08000 I-0.35000 J0.00000
G1 Z0.50000 F100.00000

G0 X21.86000 Y17.54000
G1 Z3.00000 F100.00000
G1 F120.00000
G2 X21.86000 Y17.54000 Z-0.00000 I-0.35000 J0.00000
G2 X21.86000 Y17.54000 Z-3.00000 I-0.35000 J0.00000
G2 X21.86000 Y17.54000 I-0.35000 J0.00000
G1 Z0.50000 F100.00000

G0 X28.21000 Y20.08000
G1 Z3.00000 F100.00000
G1 F120.00000
G2 X28.21000 Y20.08000 Z-0.00000 I-0.35000 J0.00000
G2 X28.21000 Y20.08000 Z-3.00000 I-0.35000 J0.00000
G2 X28.21000 Y20.08000 I-0.35000 J0.00000
G1 Z0.50000 F100.00000

G0 X-36.30000 Y7.00000
G1 Z3.00000 F100.00000
G1 F120.00000
G2 X-36.30000 Y7.00000 Z-0.00000 I-0.70000 J0.00000
G2 X-36.30000 Y7.00000 Z-3.00000 I-0.70000 J0.00000
G2 X-36.30000 Y7.00000 I-0.70000 J0.00000
G1 Z0.50000 F100.00000

G0 X-36.30000 Y72.00000
G1 Z3.00000 F100.00000
G1 F120.00000
G2 X-36.30000 Y72.00000 Z-0.00000 I-0.70000 J0.00000
G2 X-36.30000 Y72.00000 Z-3.00000 I-0.70000 J0.00000
G2 X-36.30000 Y72.00000 I-0.70000 J0.00000
G1 Z0.50000 F100.00000

G0 X38.70000 Y72.00000
G1 Z3.00000 F100.00000
G1 F120.00000
G2 X38.70000 Y72.00000 Z-0.00000 I-0.70000 J0.00000
G2 X38.70000 Y72.00000 Z-3.00000 I-0.70000 J0.00000
G2 X38.70000 Y72.00000 I-0.70000 J0.00000
G1 Z0.50000 F100.00000

G0 X38.70000 Y7.00000
G1 Z3.00000 F100.00000
G1 F120.00000
G2 X38.70000 Y7.00000 Z-0.00000 I-0.70000 J0.00000
G2 X38.70000 Y7.00000 Z-3.00000 I-0.70000 J0.00000
G2 X38.70000 Y7.00000 I-0.70000 J0.00000
G1 Z0.50000 F100.00000

G0 X-13.72000 Y15.00000
G1 Z3.00000 F100.00000
G1 F120.00000
G2 X-13.72000 Y15.00000 Z-0.00000 I-1.60000 J0.00000
G2 X-13.72000 Y15.00000 Z-3.00000 I-1.60000 J0.00000
G2 X-13.72000 Y15.00000 I-1.60000 J0.00000
G1 Z0.50000 F100.00000

G0 X6.60000 Y15.00000
G1 Z3.00000 F100.00000
G1 F120.00000
G2 X6.60000 Y15.00000 Z-0.00000 I-1.60000 J0.00000
G2 X6.60000 Y15.00000 Z-3.00000 I-1.60000 J0.00000
G2 X6.60000 Y15.00000 I-1.60000 J0.00000
G1 Z0.50000 F100.00000

G0 X26.92000 Y15.00000
G1 Z3.00000 F100.00000
G1 F120.00000
G2 X26.92000 Y15.00000 Z-0.00000 I-1.60000 J0.00000
G2 X26.92000 Y15.00000 Z-3.00000 I-1.60000 J0.00000
G2 X26.92000 Y15.00000 I-1.60000 J0.00000
G1 Z0.50000 F100.00000

G00 Z100.000000 ( All done -- retract )

M5      (Spindle off.)
G04 P5.000000
M9      (Coolant off.)
M2      (Program end.)

