( pcb2gcode 2.0.0 )
( Software-independent Gcode )

G94 ( Millimeters per minute feed rate. )
G21 ( Units == Millimeters. )

G90 ( Absolute coordinates. )
G00 S24000 ( RPM spindle speed. )
G64 P0.00500 ( set maximum deviation from commanded toolpath )
G01 F120.00000 ( Feedrate. )


G00 Z100.00000 (Retract to tool change height)
T0
M5      (Spindle stop.)
G04 P5.00000 (Wait for spindle to stop)
(MSG, Change tool bit to cutter diameter 0.80000mm)
M6      (Tool change.)
M0      (Temporary machine stop.)
M3 ( Spindle on clockwise. )
G04 P5.00000 (Wait for spindle to get up to speed)
G04 P0 ( dwell for no time -- G64 should not smooth over this point )
G00 Z0.50000 ( retract )

G00 X-39.90000 Y4.49999 ( rapid move to begin. )
G01 Z-5.00000 F100.00000 ( plunge. )
G04 P0 ( dwell for no time -- G64 should not smooth over this point )
G01 F120.00000
G01 X-39.90000 Y39.84999
G00 Z0.50000
G01 X-39.90000 Y41.64999
G01 Z-5.00000 F100.00000
G01 F120.00000
G01 X-39.90000 Y77.00000
G01 X-39.89230 Y77.07805
G01 X-39.86952 Y77.15308
G01 X-39.83253 Y77.22227
G01 X-39.78278 Y77.28288
G01 X-39.72212 Y77.33264
G01 X-39.65296 Y77.36959
G01 X-39.57790 Y77.39233
G01 X-39.49982 Y77.40000
G01 X22.95515 Y77.37599
G01 X23.03315 Y77.36827
G01 X23.10816 Y77.34549
G01 X23.17730 Y77.30851
G01 X23.23788 Y77.25877
G01 X23.28761 Y77.19817
G01 X23.32454 Y77.12903
G01 X23.34730 Y77.05400
G01 X23.35500 Y76.97600
G01 X23.35500 Y72.42299
G01 X28.55496 Y72.42299
G01 X28.55496 Y76.97600
G01 X28.56263 Y77.05392
G01 X28.58534 Y77.12885
G01 X28.62222 Y77.19794
G01 X28.67182 Y77.25852
G01 X28.73230 Y77.30828
G01 X28.80131 Y77.34529
G01 X28.87622 Y77.36815
G01 X28.95415 Y77.37597
G01 X33.82665 Y77.38610
G00 Z0.50000
G01 X35.62665 Y77.38984
G01 Z-5.00000 F100.00000
G01 F120.00000
G01 X40.49916 Y77.39997
G01 X40.57731 Y77.39245
G01 X40.65247 Y77.36977
G01 X40.72179 Y77.33287
G01 X40.78252 Y77.28313
G01 X40.83240 Y77.22248
G01 X40.86946 Y77.15326
G01 X40.89227 Y77.07813
G01 X40.89999 Y77.00000
G01 X40.89999 Y4.49999
G01 X40.89230 Y4.42194
G01 X40.86954 Y4.34691
G01 X40.83258 Y4.27774
G01 X40.78282 Y4.21714
G01 X40.72222 Y4.16738
G01 X40.65306 Y4.13042
G01 X40.57802 Y4.10766
G01 X40.50000 Y4.09997
G01 X-39.50000 Y4.09997
G01 X-39.57803 Y4.10766
G01 X-39.65306 Y4.13042
G01 X-39.72222 Y4.16738
G01 X-39.78283 Y4.21714
G01 X-39.83258 Y4.27774
G01 X-39.86954 Y4.34691
G01 X-39.89230 Y4.42194
G01 X-39.90000 Y4.49999

G04 P0 ( dwell for no time -- G64 should not smooth over this point )
G00 Z100.000000 ( retract )

M5 ( Spindle off. )
G04 P5.000000
M9 ( Coolant off. )
M2 ( Program end. )

